X: 584
M: 6/8
L: 1/8
K: Am
V: 1
c2A BGE | c2A BGE | GAG G2d | GAG G2B |\
c2A BGE | c2A BGE | ABA A2e | ABA A2 :|
|: B |\
cde def | edc BAG | g>ag gdB | g>ag gdB |\
cde def | edc dcB | ABA A2e | ABA A2 :|
V: 2 clef=bass middle=d
z |\
e3 e3 | e3 e3 | g3 g3 | g3 g3 |\
e3 e3 | e3 e3 | a3 a3 | a3 a2 :||: g |
c'3 b3 | c'3 g3 | g3 g3 | g3 g3 |\
c'3 b3 | c'3 g3 | a3 a3 | a3 a2 :|

